!!!ONB: MCCC : IJB0031_06 : Extracted Monophonic Melody
!!!COM: Brahms, Johannes
!!!OPR: Sieben Fantasien
!!!OMV: 6
!!!SCT: Op.116
!!!ODT: 1892///
**kern
*staff1
*clefG2
*k[f#c#g#d#]
*E:
*M3/4
4b
=2
4b
4a
4a
=3
4a
4g#
4g#
=4
4g#
4f#
8e#
8f#
=5
8a
8f#
8e
8d#
4cc#
=6
4cc#
4b
4b
=7
4b
4a
4a
=8
4a
4g#
4g#
=9
*M4/4
4g#
2g#
4gg#
=10
*M3/4
4gg#
4gg#
4aa#
=11
4gg#
4gg#
4gg#
=12
4gg#
4gg#
8aa
8bb
=13
4ee
4dd
4aa#
=14
4bb#
4ccc#
4a#
=15
4b#
4cc#
4g#
=16
4g#
4f#
8e#
8f#
=17
8a
8f#
8e
8d#
4cc#
=18
4cc#
4b
4b
=19
4b
4a
4dd
=20
4dd
4b#
4dd#
=21
4cc##
4b#
4d#
=22
4c##
4d#
4e
=23
4f#
2g#[
=24
4g#]
2g#
=25
*M2/4
2g#
=26
*M1/4
12dd#
12b
12g#
=27
*M3/4
4cc#
12b
12g#
12e
4a#
=28
12g#
12e
12c#
8b
8a#
12g#
12e
12c#
=29
8b
8a#
12g#
12e
12c#
8cc#
8b
=30
12a#
12g
12d#
4ee
12dd#
12a#
12g
=31
4cc#
12b
12g#
12e
4a#
=32
12g#
12e
12c#
8b
8a#
12e
12c#
12A#
=33
8g#
8f#
12c#
12A#
12F#
4d#
=34
2e
12d#
12g
12a#
=35
4c#
12B
12d#
12g#
4A#
=36
12G#
12B
12e
8B
8A#
12G#
12c#
12e
=37
8B
8A#
12G#
12B
12e
8c#
8B
=38
12A#
12d#
12g
4ee
12dd#
12a#
12g
=39
4cc#
12b
12g#
12e
4a#
=40
12g#
12e
12c#
8A#
8B
12c#
12e
12g#
=41
8b
8a#
12g#
12e
12c#
8G#
8A#
=42
12B
12e#
12g#
8b
8a#
12g#
12e#
12B
=43
2.r
=44
*M2/4
12c#
12A#
12G#[
4G#]
=45
*M1/4
8.b
16r
=46
*M3/4
4b
4a
8a[
8a]
=47
4a
8g#[
8g#]
4g#
=48
4g#
4f#
8e#
8f#
=49
8a
8f#
8e
8d#
4cc#
=50
4cc#
4b
8b[
8b]
=51
4b
8a[
8a]
4dd
=52
4dd
4b#
8a##
8b#
=53
8dd#
8b#
8a#
8a
4dd#
=54
4cc##
4b#
8a##
8b#
=55
2.gg
=56
4ee#
4r
4r
=57
8d#
8B#
4A#
4d#
=58
4c##
4d#
4e
=59
4f#
2g#
=60
2b
12ee
12a
12e
=61
12dd#
12a
12e#
12cc#
12a
12f#
12b
12g#
12e#
=62
4a
8cc#
8b
4e
=63
4r
4c#
4r
=64
4c#
4B
4f#[
=65
2.f#]
=66
8e
8g#
8b
8ee
8gg#
8bb
=67
4b
2ee[
=68
4ee]
4r
4r
==
*-
